X: 15816
T: Gooseberry Bush, The
R: reel
M: 4/4
K: Dmajor
|:ADFD EFGB|AGAB =c2 AG|AB=cA dcAG|(3EFG AF GBAF|
DEFD EFGB|AB=cA dfeg|fddc dfed|cAGE EDD2:|
|:Ad d2 fded|=c3 d cAGc|A2 FA G~E3|FGAB =cAGc|
Ad d2 fded|=c3 d cAGc|AB=cA dcAG|AB=cA d4:|
|:Addd fddd|efge aged|(3Bcd ef g2 ef|~g3 e dcAd|
d2 Bd GdAG|(3EFG AB =c2 AG|AB=cA d=cAG|AB=cA d4:|

